P3
# API나 GPU 없이 이미지 입력 흐름을 확인하기 위한 아주 작은 테스트 이미지
8 8
255
255 255 255  255 255 255  255 255 255  255 255 255  255 255 255  255 255 255  255 255 255  255 255 255
255 255 255  255 255 255  255 255 255  100 60 170  100 60 170  255 255 255  255 255 255  255 255 255
255 255 255  255 255 255  100 60 170  100 60 170  100 60 170  100 60 170  255 255 255  255 255 255
255 255 255  255 255 255  100 60 170  120 80 190  120 80 190  100 60 170  255 255 255  255 255 255
255 255 255  255 255 255  100 60 170  120 80 190  120 80 190  100 60 170  255 255 255  255 255 255
255 255 255  255 255 255  100 60 170  100 60 170  100 60 170  100 60 170  255 255 255  255 255 255
255 255 255  255 255 255  255 255 255  100 60 170  100 60 170  255 255 255  255 255 255  255 255 255
255 255 255  255 255 255  255 255 255  255 255 255  255 255 255  255 255 255  255 255 255  255 255 255
